X: 303
T: Polonaise No. 1.	 Op. 40
C: Fryderyk Chopin
%%abc-version 2.0
%%abcx-abcm2ps-target-version 5.9.1 (29 Sep 2008)
%%abc-creator hum2abc beta
%%abcx-conversion-date 2021/10/03 11:24:05
%%abc-edited-by Leszek Kubiak
%%abc-edited-by Zofia Niedbalska
%%abc-edited-by Marta Lawrence
%%abcx-initial-encoding-date 2019-05-07
%%humdrum-veritas 675882634
%%humdrum-veritas-data 3154755226
%%linebreak <none>
%%barnumbers 0
L: 1/16
M: 3/4
N: Derived from 040-1-TR-001.krn
P: DEUX POLONAISES Pour Le Piano.
%%staves {1 2}
V: 1 clef=treble
V: 2 clef=bass
K: A
[V:1] [A2C2A,2]z[EC] [E2C2]z[EC] .[FD].[GD].[AD].[BD] | 
[V:2] [A,,2A,,,2]z[A,E,A,,] [A,2E,2A,,2]z[A,E,A,,] [B,E,A,,][B,E,A,,][B,E,A,,][B,E,A,,] | 
[V:1] [c2C2]>[A2C2] .[A2C2] (3G,A,B, .A,2.E,2 | 
[V:2] [A,2E,2A,,2]>[A,2E,2A,,2] [A,2E,2A,,2] (3G,,A,,B,, A,,2E,,2 | 
[V:1] [c2C2]z[AC] [A2C2]z[GC] .[AC].[BAC].[cAC].[dAC] | 
[V:2] [A,,2A,,,2] z [A,E,A,,] [A,2E,2A,,2]z[A,E,A,,] [A,E,A,,][A,E,A,,][A,E,A,,][B,E,A,,] | 
[V:1] [f2A2^D2]>[e2A2E2] [e2A2E2] (3G,A,=B, .A,2.E,2 | 
[V:2] [^B,2F,2^D,2A,,2]>[C2A,2E,2] [C2A,2E,2] (3G,,A,,=B,, A,,2E,,2 | 
[V:1] .[c'2^e2c2] (3[gcG][gcG][gcG] [g2c2G2][g2c2G2] .[^a^d^A].[^b^B].[c'gc].[=d'd] | 
[V:2] [G,,2G,,,2] (3[^ECG,^E,][ECG,E,][ECG,E,] [E2C2G,2E,2][E2C2G,2E,2] [^D2^B,2G,2F,2][G,,2G,,,2] | 
[V:1] [^e'2c'2^e2]>[c'2c2] .[c'2c2].[c'c].[c'c] .[c'c].[c'c].[c'c].[c'c] | 
[V:2] [C,,2C,,,2]>[C2C,2] [C2C,2][CC,][CC,] [CC,][CC,][CC,][CC,] | 
[V:1] [c'2c2][bfB]>[bfB] [b2f2B2][c'2c2] [e'2a2e2][d'd][c'c] | 
[V:2] x8E2D2 & [C2C,2][B,F,D,]>[B,F,D,] [B,2F,2D,2][C2G,2E,2][A,4F,4] | 
[V:1] [b2B2][beB]>[c'c][b4e4B4][a2A2] z2 :|]|:  
[V:2] [D2G,2E,2][E2D2G,2E,2][E4-D4G,4E,4][E2C2A,2] z2 :|]|:  
[V:1] [b2f2^d2B2A2]z[fdBA] .[f2d2B2A2] (3^A,B,CB,2 .[g2e2G2] | 
[V:2] [B,,2B,,,2]z[B,B,,] [B,2B,,2] (3^A,,B,,C,B,,2 [E,2E,,2] | 
[V:1] .[b2^d2B2A2] (3.[fdBA].[fdBA].[fdBA] .[f2d2B2A2] (3^A,B,C.B,2 [g2d2G2] | 
[V:2] [B,,2B,,,2] (3[B,B,,][B,B,,][B,B,,] [B,2B,,2] (3^A,,B,,C,B,,2 [B,,2B,,,2] | 
[V:1] [e2c2G2E2].[ecGE].[ecGE] [a2c2A2][g2^B2G2][f2c2F2][g2^d2^B2G2F2] | 
[V:2] [C,2C,,2][C,C,,][C,C,,] [F,,2F,,,2][G,,2G,,,2][A,,2A,,,2][G,,2G,,,2] | 
[V:1] [e2c2G2E2][^d2c2^A2^^F2^D2C2] [^B2G2D2^B,2] [dD][dD] [dD][dD][dD][dD] | 
[V:2] [C,2C,,2][D,2D,,2] [G,2G,,2] [D,D,,][D,D,,] [D,D,,][D,D,,][D,D,,][D,D,,] | 
[V:1] [^d'2a2^^f2^d2c2]z[afdc] !wedge![a2f2d2c2] (3^^C^D^ED2 .[^b2g2^d2^B2] | 
[V:2] [D,,2D,,,2]z[^^F^DC^A,^^F,] [F2D2C2A,2F,2] (3^^C,^D,^E,D,2 [G,,2G,,,2] | 
[V:1] .[^d'2^a2^^f2^d2c2] (3.[^adc^A].[adcA].[adcA] .[a2d2c2A2] (3^^C^D^ED2 .[^b2g2d2^B2] | 
[V:2] [D,,2D,,,2] (3[^^FDC^A,^^F,][FDCA,F,][FDCA,F,] [F2D2C2A,2F,2] (3^^C,D,^E,D,2 [G,,2G,,,2] | 
[V:1] .[c'2f2c2] (3.[fcF].[fcF].[fcF] [f2c2F2][g2e2c2G2][a2e2c2A2][b2d2B2A2] | 
[V:2] [A,,2A,,,2] (3[A,A,,][A,A,,][A,A,,] [A,2A,,2][G,2G,,2][F,2F,,2][B,,2B,,,2] | 
[V:1] x4x2 {/e} [dD][cC] x2 {/d} cB & [e2G2E2][eAE]>[eE] [e2A2E2]A2[d2G2E2D2][G2E2D2] | 
[V:2] [E,2E,,2][C,2C,,2][F,2F,,2][B,,2B,,,2][E,2E,,2][E,,2E,,,2] | 
[V:1] [A2C2A,2]z[EC] [E2C2]z[EC] .[FD].[GD].[AD].[BD] | 
[V:2] [A,,2A,,,2]z[A,E,A,,] [A,2E,2A,,2]z[A,E,A,,] [B,E,A,,][B,E,A,,][B,E,A,,][B,E,A,,] | 
[V:1] [c2C2]>[A2C2] [A2C2] (3G,A,B, .A,2.E,2 | 
[V:2] [A,2E,2A,,2]>[A,2E,2A,,2] [A,2E,2A,,2] (3G,,A,,B,, A,,2E,,2 | 
[V:1] [c2C2]z[AC] [A2C2]z[GC] .[AC].[BAC].[cAC].[dAD] | 
[V:2] [A,,2A,,,2] z [A,E,A,,] [A,2E,2A,,2]z[A,E,A,,] [A,E,A,,][A,E,A,,][A,E,A,,][B,E,A,,] | 
[V:1] [f2A2^D2]>[e2A2E2] [e2A2E2] (3G,A,B, .A,2.E,2 | 
[V:2] [^B,2F,2^D,2A,,2]>[C2A,2E,2] [C2A,2E,2] (3G,,A,,B,, A,,2E,,2 | 
[V:1] .[c'2^e2c2] (3[gcG][gcG][gcG] [g2c2G2][g2c2G2] .[^a^d^A].[^b^B].[c'gc].[^d'd] | 
[V:2] [G,,2G,,,2] (3[^ECG,^E,][ECG,E,][ECG,E,] [E2C2G,2E,2][E2C2G,2E,2] [^D2^B,2G,2F,2][G,,2G,,,2] | 
[V:1] [^e'2c'2^e2]>[c'2c2] .[c'2c2].[c'c].[c'c] .[c'c].[c'c].[c'c].[c'c] | 
[V:2] [C,,2C,,,2]>[C2C,2] [C2C,2][CC,][CC,] [CC,][CC,][CC,][CC,] | 
[V:1] [c'2c2][bfB]>[bfB] [b2f2B2][c'2c2] [e'2a2e2][d'd][c'c] | 
[V:2] x8E2D2 & [C2C,2][B,F,D,]>[B,F,D,] [B,2F,2D,2][C2G,2E,2][A,4F,4] | 
[V:1] !wedge![b2B2][beB]>[c'c][b4e4B4][a2A2] z2 :|]  
[V:2] [D2G,2E,2][E2D2G,2E,2][E4-D4G,4E,4][E2C2A,2] z2 :|]  
[V:1]  [K:D] d8A4 | 
[V:2]  [K:D] .[D,,2D,,,2].[DA,F,].[DA,F,] .[D2A,2F,2].[D2A,2F,2].[C2A,2G,2].[C2A,2G,2] | 
[V:1] D2zA,D8 | 
[V:2] .[D,,2D,,,2].[F,D,].[F,D,] .[F,2D,2].[A,2F,2].[A,2G,2E,2].[A,2F,2D,2] | 
[V:1] A8E4 | 
[V:2] .[A,,2A,,,2].[A,E,C,].[A,E,C,] [A,2E,2C,2][A,2E,2C,2][A,2D,2B,,2][A,2D,2B,,2] | 
[V:1] A,2zE,A,8 | 
[V:2] [A,,2A,,,2].[C,A,,][C,A,,] .[C,2A,,2].[E,2C,2].[E,2D,2B,,2].[E,2C,2A,,2] | 
[V:1] [B2G2D2B,2] (3[BGD]B,[BGD]- [B2G2D2B,2][c2^A2C2][d2B2F2D2][e2c2A2E2] | 
[V:2] [G,,2G,,,2] [G,G,,][G,G,,] [G,2G,,2][F,2F,,2][B,,2B,,,2][A,,2A,,,2] | 
[V:1] .[f2d2A2F2] (3[fdA]F[fd-A-] [g2d2A2F2][^g2^e2c2^G2][a2f2c2A2][b2g2=e2B2] | 
[V:2] [D,,2D,,,2] [DD,][DD,] [D2D,2][C2C,2][F,2F,,2][=E,2=E,,2] | 
[V:1] .[c'2g2c2].[c'gc].[c'gc] .[c'2g2c2].[bgc].[agc] !accent![d'2f2d2]!accent![^d'2a2^d2] | 
[V:2] [A,,2A,,,2][K:clef=treble] [AGEA,][AGEA,] [A2G2E2A,2][AGEA,][AGEA,] [A2F2A,2][A2F2^B,2A,2] | 
[V:1] .[e'2a2e2] .[a'a].[a'a] .[a'2a2].[^g'^g].[a'a] .[^a'^a].[b'b].[^b'^b].[c''c'] | 
[V:2] [A2G2C2A,2][K:clef=bass] [A,,A,,,][A,,A,,,] [A,,2A,,,2][_B,,_B,,,][A,,A,,,] [^G,,^G,,,][=G,,=G,,,][F,,F,,,][E,,E,,,] | 
[V:1] !accent![d''8d'8][a'4a4] | 
[V:2] .[D,,2D,,,2].[DA,F,].[DA,F,] .[D2A,2F,2].[D2A,2F,2].[C2A,2G,2].[C2A,2G,2] | 
[V:1] [d'2d2]z[aA][d'8d8] | 
[V:2] .[D,2D,,2].[DF,D,].[DF,D,] .[D2F,2D,2].[D2A,2F,2].[D2G,2E,2].[D2F,2D,2] | 
[V:1] [a'8a8][e'4e4] | 
[V:2] .[A,,2A,,,2] .[A,E,C,].[A,E,C,] .[A,2E,2C,2].[A,2E,2C,2].[A,2D,2B,,2].[A,2D,2B,,2] | 
[V:1] [a2A2]z[eE][a8A8] | 
[V:2] .[A,,2A,,,2] .[A,E,C,].[A,E,C,] .[A,2E,2C,2].[A,2E,2C,2].[A,2D,2B,,2].[A,2C,2A,,2] | 
[V:1] x8_b4 & .[a2_e2A2][aeA][aeA] [a2e2A2][geA][afeA] [f2d2_B2][f2d2B2] | 
[V:2] [=F,,2=F,,,2][=F_EC=F,][FECF,] [F2E2C2F,2][FECF,][FECF,] [F2D2_B,2][_B,,2_B,,,2] | 
[V:1] x8=c'4 & [=b2f2=B2][bfB][bfB] [b2f2B2][afB][bgfB] [g2e2=c2][g2e2c2] | 
[V:2] [G,,2G,,,2][GFDG,][GFDG,] [G2F2D2G,2][GFDG,][GFDG,] [G2E2=C2][=C,2=C,,2] | 
[V:1] .[^c'2g2^c2][c'agc][d'agd] .[e'2a2g2e2][c'agc][d'agd] [e'age][f'f][g'c'g][^g'^g] | 
[V:2] [A,,2A,,,2][K:clef=treble][AGECA,][AGECA,] [A2G2E2C2A,2][AGECA,][AGECA,] [A2G2E2C2A,2][AGECA,][A=GECA,] | 
[V:1] [a'e'a][^a'^a][b'b][c''c'][e''4a'4e'4][d''2d'2] z2 | 
[V:2] [A2G2E2C2A,2][A2G2E2C2A,2][A4G4C4A,4][A2F2D2] z2[K:clef=bass] | 
[V:1] {/D}d8A4 | 
[V:2] .[D,,2D,,,2].[DA,F,].[DA,F,] .[D2A,2F,2].[D2A,2F,2].[C2A,2G,2].[C2A,2G,2] | 
[V:1] D2zA,D8 | 
[V:2] .[D,,2D,,,2].[F,D,].[F,D,] .[F,2D,2].[A,2F,2].[A,2G,2E,2].[A,2F,2D,2] | 
[V:1] A8E4 | 
[V:2] [A,,2A,,,2].[A,E,C,].[A,E,C,] .[A,2E,2C,2].[A,2E,2C,2].[A,2D,2B,,2].[A,2D,2B,,2] | 
[V:1] A,2zE,A,8 | 
[V:2] [A,,2A,,,2].[C,A,,].[C,A,,] .[C,2A,,2].[E,2C,2].[E,2D,2B,,2].[E,2C,2A,,2] | 
[V:1] [B2G2D2B,2] (3[BGD]B,[BGD]- [B2G2D2B,2][c2^A2F2C2][d2B2F2D2][e2c2A2E2] | 
[V:2] [G,,2G,,,2] [G,G,,][G,G,,] [G,2G,,2][F,2F,,2][B,,2B,,,2][A,,2A,,,2] | 
[V:1] [f2d2A2F2] (3[fdA]F[fd-A-] [g2d2A2F2][^g2^e2c2^G2][a2f2c2A2][b2g2=e2B2] | 
[V:2] [D,,2D,,,2] [DD,][DD,] [D2D,2][C2C,2][F,2F,,2][E,2E,,2] | 
[V:1] .[c'2g2c2].[c'agc].[c'agc] .[c'2a2g2c2].[bgc].[agc] !accent![d'2a2f2d2]!accent![^d'2a2^d2] | 
[V:2] [A,,2A,,,2][K:clef=treble] [AGEA,][AGEA,] [A2G2E2A,2][AGEA,][AGEA,] [A2F2A,2][A2F2^B,2A,2] | 
[V:1] .[e'2a2e2] .[a'a].[a'a] .[a'2a2].[^g'^g].[a'a] .[^a'^a].[b'b].[^b'^b].[c''c'] | 
[V:2] [A2G2C2A,2][K:clef=bass] [A,,A,,,][A,,A,,,] [A,,2A,,,2][_B,,_B,,,][A,,A,,,] [^G,,^G,,,][=G,,=G,,,][F,,F,,,][E,,E,,,] | 
[V:1] !accent![d''8d'8][a'4a4] | 
[V:2] .[D,,2D,,,2].[DA,F,].[DA,F,] .[D2A,2F,2].[D2A,2F,2].[C2A,2G,2].[C2A,2G,2] | 
[V:1] [d'2d2]z[aA][d'8d8] | 
[V:2] .[D,2D,,2].[DF,D,].[DF,D,] .[D2F,2D,2].[D2A,2F,2].[D2G,2E,2].[D2F,2D,2] | 
[V:1] [a'8a8][e'4e4] | 
[V:2] .[A,,2A,,,2] .[A,E,C,].[A,E,C,] .[A,2E,2C,2].[A,2E,2C,2].[A,2D,2B,,2].[A,2D,2B,,2] | 
[V:1] [a2A2]z[eE][a8A8] | 
[V:2] .[A,,2A,,,2] .[A,E,C,].[A,E,C,] .[A,2E,2C,2].[A,2E,2C,2].[A,2D,2B,,2].[A,2C,2A,,2] | 
[V:1] x8_b4 & .[a2_e2A2][aeA][aeA] [a2e2A2][geA][a=feA] [=f2d2_B2][f2d2B2] | 
[V:2] [=F,,2=F,,,2][=F_EC=F,][FECF,] [F2E2C2F,2][FECF,][FECF,] [F2D2B,2][B,,2B,,,2] | 
[V:1] x8=c'4 & .[=b2=B2][bfB][bfB] [b2f2B2][afB][bgfB] [g2e2=c2][g2e2c2] | 
[V:2] [G,,2G,,,2][GFDG,][GFDG,] [G2F2D2G,2][GFDG,][GFDG,] [G2E2=C2][=C,2=C,,2] | 
[V:1] .[^c'2g2^c2][c'agc][d'agd] .[e'2a2g2e2][c'agc][d'agd] [e'age][f'f][g'c'g][^g'^g] | 
[V:2] [A,,2A,,,2][K:clef=treble][AGECA,][AGECA,] [A2G2E2C2A,2][AGECA,][AGECA,] [A2G2E2C2A,2][AGECA,][A=GECA,] | 
[V:1] [a'e'a][^a'^a][b'b][c''c'][e''4a'4e'4][d''2d'2] z2 ]|:  
[V:2] [A2G2E2C2A,2][A2G2E2C2A,2][A4G4C4A,4][A2F2D2] z2[K:clef=bass] ]|:  
[V:1] !trill!C,8-C,2^B,,/C,/D,/E,/ | 
[V:2] !trill!C,,8-C,,2^B,,,/C,,/D,,/E,,/ | 
[V:1] z2 .[d'gd].[d'gd] .[d'2g2d2].[d'2g2d2].[d'2g2d2].[d'2g2d2] | 
[V:2] [_B,,2_B,,,2] .[DG,D,].[DG,D,] .[D2G,2D,2].[D2G,2D,2].[D2G,2D,2].[D2G,2D,2] | 
[V:1] !trill!D,8-D,2C,/D,/E,/=F,/ | 
[V:2] !trill!D,,8-D,,2C,,/D,,/E,,/=F,,/ | 
[V:1] z2 [d'^gd][d'gd] .[d'2g2d2].[d'2g2d2].[d'2g2d2].[d'2g2d2] | 
[V:2] [=B,,2=B,,,2] [D^G,D,][DG,D,] .[D2G,2D,2].[D2G,2D,2].[D2G,2D,2].[D2G,2D,2] | 
[V:1] !trill!D,8C,D,=F,^F, | 
[V:2] !trill!D,,8C,,D,,=F,,^F,, | 
[V:1] z2 .[d'^fd].[d'fd] .[d'2f2d2].[d'2f2d2] ^C,D,F,G, | 
[V:2] [=C,2=C,,2] [D^F,D,][DF,D,] [D2F,2D,2][D2F,2D,2] ^C,,D,,F,,G,, | 
[V:1] z2 [d'gd][d'gd] [d'2g2d2][e'd'^ged][e'd'ged][e'2d'2g2e2d2][e'2d'2g2e2d2] | 
[V:2] [B,,2B,,,2] [DG,D,][DG,D,] [D2G,2D,2][_B,,_B,,,][B,,B,,,][B,,2B,,,2][B,,2B,,,2] | 
[V:1] [a'2c'2a2] !accent!!trill!B,2!accent!!trill!A,2!accent!!trill!G,2!accent!!trill!F,2!accent!!trill!E,2 | 
[V:2] [A,,2A,,,2][B,,2B,,,2][A,,2A,,,2][G,,2G,,,2][F,,2F,,,2][E,,2E,,,2] | 
[V:1] {/D}d8A4 | 
[V:2] [D,,2D,,,2].[DA,F,].[DA,F,] .[D2A,2F,2].[D2A,2F,2].[C2A,2G,2].[C2A,2G,2] | 
[V:1] D2zA,D8 | 
[V:2] .[D,,2D,,,2].[F,D,].[F,D,] .[F,2D,2].[A,2F,2].[A,2G,2E,2].[A,2F,2D,2] | 
[V:1] A8E4 | 
[V:2] .[A,,2A,,,2].[A,E,C,].[A,E,C,] [A,2E,2C,2][A,2E,2C,2][A,2D,2B,,2][A,2D,2B,,2] | 
[V:1] A,2zE,A,8 | 
[V:2] [A,,2A,,,2].[C,A,,].[C,A,,] .[C,2A,,2].[E,2C,2].[E,2D,2B,,2].[E,2C,2A,,2] | 
[V:1] [B2G2D2B,2] (3[BGD]B,[BGD]- [B2G2D2B,2][c2^A2F2C2][d2B2F2D2][e2c2A2E2] | 
[V:2] [G,,2G,,,2] [G,G,,][G,G,,] [G,2G,,2][F,2F,,2][B,,2B,,,2][A,,2A,,,2] | 
[V:1] [f2d2A2F2] (3[fdA]F[fd-A-] [g2d2A2F2][^g2^e2c2^G2][a2f2c2A2][b2g2=e2B2] | 
[V:2] [D,,2D,,,2] [DD,][DD,] [D2D,2][C2C,2][F,2F,,2][=E,2=E,,2] | 
[V:1] .[c'2g2c2].[c'gc].[c'gc] .[c'2g2c2].[bgc].[agc] !accent![d'2f2d2]!accent![^d'2a2^d2] | 
[V:2] [A,,2A,,,2][K:clef=treble] [AGEA,][AGEA,] [A2G2E2A,2][AGEA,][AGEA,] [A2F2A,2][A2F2^B,2A,2] | 
[V:1] .[e'2a2e2] .[a'a].[a'a] .[a'2a2].[^g'^g].[a'a] .[^a'^a].[b'b].[^b'^b].[c''c'] | 
[V:2] [A2G2C2A,2][K:clef=bass] [A,,A,,,][A,,A,,,] [A,,2A,,,2][_B,,_B,,,][A,,A,,,] [^G,,^G,,,][=G,,=G,,,][F,,F,,,][E,,E,,,] | 
[V:1] !accent![d''8d'8][a'4a4] | 
[V:2] [D,,2D,,,2].[DA,F,].[DA,F,] .[D2A,2F,2].[D2A,2F,2].[C2A,2G,2].[C2A,2G,2] | 
[V:1] [d'2d2]z[aA][d'8d8] | 
[V:2] .[D,2D,,2].[DF,D,].[DF,D,] .[D2F,2D,2].[D2A,2F,2].[D2G,2E,2].[D2F,2D,2] | 
[V:1] [a'8a8][e'4e4] | 
[V:2] .[A,,2A,,,2] .[A,E,C,].[A,E,C,] .[A,2E,2C,2].[A,2E,2C,2].[A,2D,2B,,2].[A,2D,2B,,2] | 
[V:1] .[a2A2]z[eE][a8A8] | 
[V:2] .[A,,2A,,,2] .[A,E,C,].[A,E,C,] .[A,2E,2C,2].[A,2E,2C,2].[A,2D,2B,,2].[A,2C,2A,,2] | 
[V:1] x8_b4 & .[a2_e2A2][aeA][aeA] [a2e2A2][geA][ageA] [=f2d2_B2][f2d2B2] | 
[V:2] [=F,,2=F,,,2][=F_EC=F,][FECF,] [F2E2C2F,2][FECF,][FECF,] [F2D2_B,2][_B,,2_B,,,2] | 
[V:1] x8=c'4 & .[=b2f2=B2][bfB][bfB] [b2f2B2][afB][bgfB] [g2e2=c2][g2e2c2] | 
[V:2] [G,,2G,,,2][GFDG,][GFDG,] [G2F2D2G,2][GFDG,][GFDG,] [G2E2=C2][=C,2=C,,2] | 
[V:1] .[^c'2g2^c2][c'agc][d'agd] !wedge![e'2a2g2e2][c'agc][d'agd] [e'age][f'f][g'c'g][^g'^g] | 
[V:2] [A,,2A,,,2][K:clef=treble][AGECA,][AGECA,] [A2G2E2C2A,2][AGECA,][AGECA,] [A2G2E2C2A,2][AGECA,][A=GECA,] | 
[V:1] [a'e'a][^a'^a][b'b][c''c'][e''4a'4e'4][d''2d'2] z2 :|]  
[V:2] [A2G2E2C2A,2][A2G2E2C2A,2][A4G4C4A,4][A2F2D2] z2[K:clef=bass] :|]  
[V:1]  [K:A] [A2C2A,2]z[EC] [E2C2]z[EC] .[FD].[GD].[AD].[BD] | 
[V:2]  [K:A] [A,,2A,,,2]z[A,E,A,,] [A,2E,2A,,2]z[A,E,A,,] [B,E,A,,][B,E,A,,][B,E,A,,][B,E,A,,] | 
[V:1] [c2C2]>[A2C2] !wedge![A2C2] (3G,A,B, .A,2.E,2 | 
[V:2] [A,2E,2A,,2]>[A,2E,2A,,2] [A,2E,2A,,2] (3G,,A,,B,, A,,2E,,2 | 
[V:1] [c2C2]z[AC] [A2C2]z[GC] .[AC].[BAC].[=cAC].[dAC] | 
[V:2] [A,,2A,,,2] z [A,E,A,,] [A,2E,2A,,2]z[A,E,A,,] [A,E,A,,][A,E,A,,][A,E,A,,][B,E,A,,] | 
[V:1] [f2A2^D2]>[e2A2E2] [e2A2E2] (3G,A,=B, .A,2.E,2 | 
[V:2] [^B,2F,2^D,2A,,2]>[C2A,2E,2] [C2A,2E,2] (3G,,A,,B,, A,,2E,,2 | 
[V:1] [c'2^e2c2] (3[gcG][gcG][gcG] [g2c2G2][g2c2G2] .[^a^d^A].[^b^B].[c'gc].[^d'd] | 
[V:2] [G,,2G,,,2] (3[^ECG,^E,][ECG,E,][ECG,E,] [E2C2G,2E,2][E2C2G,2E,2] [D2^B,2G,2F,2][G,,2G,,,2] | 
[V:1] [^e'2c'2^e2]>[c'2c2] .[c'2c2].[c'c].[c'c] .[c'c].[c'c].[c'c].[c'c] | 
[V:2] [C,,2C,,,2]>[C2C,2] [C2C,2][CC,][CC,] [CC,][CC,][CC,][CC,] | 
[V:1] [c'2c2][bfB]>[bfB] [b2f2B2][c'2c2] [e'2a2e2][d'd][c'c] | 
[V:2] x8E2D2 & [C2C,2][B,F,D,]>[B,F,D,] [B,2F,2D,2][C2G,2E,2][A,4F,4] | 
[V:1] !wedge![b2B2][beB]>[c'c][b4e4B4][a2A2] z2 :|]  
[V:2] [D2G,2E,2][E2D2G,2E,2][E4-D4G,4E,4][E2C2A,2] z2 :|]  
[V:1] [b2f2^d2B2A2]z[fdBA] .[f2d2B2A2] (3^A,B,CB,2 .[g2e2G2] [I:setbarnb 90]| 
[V:2] [B,,2B,,,2]z[B,B,,] [B,2B,,2] (3^A,,B,,C,B,,2 [E,2E,,2] | 
[V:1] .[b2f2^d2B2A2] (3.[fdBA].[fdBA].[fdBA] .[f2d2B2A2] (3^A,B,CB,2 [g2d2G2] | 
[V:2] [B,,2B,,,2] (3[B,B,,][B,B,,][B,B,,] [B,2B,,2] (3^A,,B,,C,B,,2 [B,,2B,,,2] | 
[V:1] [e2c2G2E2].[ecGE].[ecGE] [a2c2A2][g2^B2G2][f2c2F2][g2^d2^B2G2F2] | 
[V:2] [C,2C,,2][C,C,,][D,D,,] [F,,2F,,,2][G,,2G,,,2][A,,2A,,,2][G,,2G,,,2] | 
[V:1] [e2G2E2][^d2c2^A2^^F2^D2C2] [^B2G2D2^B,2] [dD][dD] [dD][dD][dD][dD] | 
[V:2] [C,2C,,2][D,2D,,2] [G,2G,,2] [D,D,,][D,D,,] [D,D,,][D,D,,][D,D,,][D,D,,] | 
[V:1] [^d'2c'2^a2^^f2^d2c2]z[afdc^A] .[a2f2d2c2A2] (3^^C^D^ED2 .[^b2g2^d2^B2] | 
[V:2] [D,,2D,,,2]z[^^F^DC^A,^^F,] [F2D2C2A,2F,2] (3^^C,^D,^E,D,2 [G,,2G,,,2] | 
[V:1] .[^d'2^a2^^f2^d2c2] (3.[^adc^A].[adcA].[adcA] .[a2d2c2A2] (3^^C^D^ED2 .[^b2g2d2^B2] | 
[V:2] [D,,2D,,,2] (3[^^FDC^A,^^F,][FDCA,F,][FDCA,F,] [F2D2C2A,2F,2] (3^^C,D,^E,D,2 [G,,2G,,,2] | 
[V:1] .[c'2f2c2] (3.[fcF].[fcF].[fcF] [f2c2F2][g2e2c2G2][a2e2c2A2][b2d2B2A2] | 
[V:2] [A,,2A,,,2] (3[A,A,,][A,A,,][A,A,,] [A,2A,,2][G,2G,,2][F,2F,,2][B,,2B,,,2] | 
[V:1] x4x2 {/e} [dD][cC] x2 {/d} cB & [e2G2E2][eAE]>[eE] [e2A2E2]A2[d2G2E2D2][G2E2D2] | 
[V:2] [E,2E,,2][C,2C,,2][F,2F,,2][B,,2B,,,2][E,2E,,2][E,,2E,,,2] | 
[V:1] [A2C2A,2]z[EC] [E2C2]z[EC] .[FD].[GD].[AD].[BD] | 
[V:2] [A,,2A,,,2]z[A,E,A,,] [A,2E,2A,,2]z[A,E,A,,] [B,E,A,,][B,E,A,,][B,E,A,,][B,E,A,,] | 
[V:1] [c2C2]>[A2C2][A8C8] & x6(3G,A,B, .A,2.E,2 | 
[V:2] [A,2E,2A,,2]>[A,2E,2A,,2] [A,2E,2A,,2] (3G,,A,,B,, A,,2E,,2 | 
[V:1] [c2C2]z[AC] [A2C2]z[GC] [AC][BAC][cAC][dAD] | 
[V:2] [A,,2A,,,2] z [A,E,A,,] [A,2E,2A,,2]z[A,E,A,,] [A,E,A,,][A,E,A,,][A,E,A,,][B,E,A,,] | 
[V:1] [f2A2^D2]>[e2A2E2] [e2A2E2] (3G,A,=B, .A,2.E,2 | 
[V:2] [^B,2F,2^D,2A,,2]>[C2A,2E,2] [C2A,2E,2] (3G,,A,,=B,, A,,2E,,2 | 
[V:1] .[c'2^e2c2] (3[gcG][gcG][gcG] [g2c2G2][g2c2G2] .[^a^d^A].[^b^B].[c'gc].[^d'd] | 
[V:2] [G,,2G,,,2] (3[^ECG,^E,][ECG,E,][ECG,E,] [E2C2G,2E,2][E2C2G,2E,2] [^D2^B,2G,2F,2][G,,2G,,,2] | 
[V:1] [^e'2c'2^e2]>[c'2c2] .[c'2c2].[c'c].[c'c] .[c'c].[c'c].[c'c].[c'c] | 
[V:2] [C,,2C,,,2]>[C2C,2] [C2C,2][CC,][CC,] [CC,][CC,][CC,][CC,] | 
[V:1] [c'2c2][bfB]>[bfB] [b2f2B2][c'2c2] [e'2a2e2][d'd][c'c] | 
[V:2] x8E2D2 & [C2C,2][B,F,D,]>[B,F,D,] [B,2F,2D,2][C2G,2E,2][A,4F,4] | 
[V:1] !wedge![b2B2][beB]>[c'c][b4e4B4][a2A2] z2 :|]  
[V:2] [D2G,2E,2][E2D2G,2E,2][E4-D4G,4E,4][E2C2A,2] z2 :|]
